X:509
T:Mrs MacPherson of Inveran
S:Colin Hume's website,  colinhume.com  - chords can also be printed below the stave.
Q:1/2=112
M:4/4
C:P.M. G.S. McLennan
N:There's more to the original tune - this is a 32-bar version.
K:D
P:A
[| g | "D"f2af dfAd | "D"f2af "A7"f2ef | "A7"e2ge ceAc | "A7"e2fg "D"f2dg |\
"D"f2af dfAd | "D"f2af "A7"f2ef | "A7"e2ge ceAc | "A7"e2fg "D"f2dA |
P:B
"D"d2Ad dfAd | "D"d2Ad "A7"d2cd | "A7"c2Ac ceAc | "A7"c2Ac "D"e2dA |\
"D"d2Ad dfAd | "D"d2Ad "A7"d2cd | "A7"c2AB cdef | "A7"gfea "D"f2d g |
P:C
| "D"f2gf a2fg | "D"a2fg "A7"f2ef | "A7"e2fe g2ef | "A7"g2ef "D"e2dg |\
| "D"f2gf a2fg | "D"a2fg "A7"f2ef | "A7"e2fe g2ef | "A7"g2ef "D"e2dA |
P:D
| "D"d2Ad faef | "D"dfed "A7"d2cd | "A7"c2Ac egdf | "A7"ceBc "D"e2dA |\
"D"d2Ad faef | "D"dfed "A7"d2cd | "A7"c2AB Aceg | "A7"face "D"e2d2 |]

